X:1
T:Title
%%score 1 { 2 | 3 }
L:1/8
Q:1/4=100
M:4/4
K:G
V:1 treble nm="Grand Piano, Soprano"
V:2 bass nm="Choir Pad, How Much Greater Is His Love!"
V:3 bass 
V:1
 [B,D]3 [B,D] [_B,^C][=B,D][DG][DA] | [DB]2 [DB]4 [DB][Dc] | [Gd]3 [Gc] [GB]2 [FA]2 | G6 [DG][DF] | %4
w: By~E.~Lester~Thurman * * * * *||||
 [CE]3 [EA] [EG]2 [CE]2 | [CE]2 [B,D]4 [DG][DG] | [DA]3 [DA] [^CA]2 [CB]2 | [DA]6 DD | %8
w: ||||
 [FA]3 [FA] [FB]2 [DF]2 | [DA]2 [DG]4 GG | [Gc]3 [Gc] [Fd]2 [FA]2 | [GB]6 [GB][G^c] | %12
w: ||||
 [=Fd]3 [Fd] [F^c]2 [FB]2 | [FB]2 [FA]2 [^DG]2 [DF]2 | [DF]2 [DE]2 [^CF]3 [CE] | [DA]6 [DB][Dc] | %16
w: ||||
 [Gd]3 [A^d] [^Ge]2 [GB]2 | [Bd]2 [Ac]4 [Ac][Ac] | [Ac]3 [A^c] [Ad][FA][GB][A=c] | [GB]6 G[FA] | %20
w: ||||
 [GB]3 [Ad] [^Ge]2 [GB]2 | [Bd]2 [Ac]2 [EB]2 [EA]2 | [DG][B,D][_B,^C][=B,D] [DB]2 [CA]2 | [B,G]8 |] %24
w: ||||
V:2
 G,3 G, G,G,G,F, | G,2 G,4 G,A, | B,3[K:treble] E D2 C2 | B,6 G,[K:bass]G, | G,3 C C2 G,2 | %5
 G,2 G,4 G,G, | F,3 F, G,2 G,2 | F,6 F,F, | C3 C D2 C2 | C2 B,4 DD | E3 E D2 D2 | D6 D^C | %12
 B,3 B, ^C2 D2 | D2 D2[K:bass] B,2 A,2 | ^G,2 G,2 =G,3 G, | F,6 G,A, | B,3 B, B,2[K:treble] E2 | %17
 E2 E4 EE | E3 E DDDD | D6 B,D | D3 B, B,2 E2 | E2 E2 D2 C2 | B,G,G,G, G,2 F,2 | G,8 |] %24
V:3
 G,,3 G,, G,,G,,B,,D, | z4 z2 z G, | G,3 C, D,2 D,2 | G,6 B,,B,, | C,3 C, C,2 C,2 | %5
 G,,2 G,,4 B,,B,, | D,3 D, E,2 A,,2 | D,6 D,D, | D,3 D, D,2 D,2 | G,2 G,4 B,B, | A,3 A, D,2 D,2 | %11
 G,6 G,G, | ^G,3 G, G,2 G,2 | A,2 A,2 z2 B,,2 | E,2 E,2 A,,3 A,, | D,6 z G, | G,3 F, E,2 E,2 | %17
 A,2 A,4 A,A, | A,3 G, F,D,D,D, | G,6 G,D, | G,3 =F, E,2 E,2 | A,2 A,,2 B,,2 C,2 | %22
 D,D,D,D, D,2 D,2 | G,,8 |] %24

